website/public/Images/svg/copy_orange.svg

<svg xmlns="http://www.w3.org/2000/svg" width="24" height="24" fill="#f26d00" xmlns:v="https://vecta.io/nano"><path d="M8 7H19V21H8V7Z"/><path d="M16 1H4c-1.1 0-2 .9-2 2v14h2V3h12V1zm3 4H8c-1.1 0-2 .9-2 2v14c0 1.1.9 2 2 2h11c1.1 0 2-.9 2-2V7c0-1.1-.9-2-2-2zm0 16H8V7h11v14z"/></svg>

<svg width="24" height="24" viewBox="0 0 24 24" fill="none" xmlns="http://www.w3.org/2000/svg">
<path d="M8 7H19V21H8V7Z" fill="#F26D00"/>
<path d="M16 1H4C2.9 1 2 1.9 2 3V17H4V3H16V1ZM19 5H8C6.9 5 6 5.9 6 7V21C6 22.1 6.9 23 8 23H19C20.1 23 21 22.1 21 21V7C21 5.9 20.1 5 19 5ZM19 21H8V7H19V21Z" fill="#F26D00"/>
</svg>
